dist/assets/images/myProfile/upload.svg

<svg width="16" height="16" viewBox="0 0 16 16" fill="none" xmlns="http://www.w3.org/2000/svg">
<g id="ic24-upload">
<path id="Icon" fill-rule="evenodd" clip-rule="evenodd" d="M14.0002 10.6666C14.3421 10.6666 14.6238 10.9239 14.6623 11.2555L14.6668 11.3333V12.6666C14.6668 13.7317 13.8342 14.6024 12.7843 14.6632L12.6668 14.6666H3.3335C2.26838 14.6666 1.39772 13.834 1.33689 12.7841L1.3335 12.6666V11.3333C1.3335 10.9651 1.63197 10.6666 2.00016 10.6666C2.34205 10.6666 2.62383 10.9239 2.66234 11.2555L2.66683 11.3333V12.6666C2.66683 13.0085 2.92419 13.2903 3.25575 13.3288L3.3335 13.3333H12.6668C13.0087 13.3333 13.2905 13.0759 13.329 12.7443L13.3335 12.6666V11.3333C13.3335 10.9651 13.632 10.6666 14.0002 10.6666ZM7.90119 1.3406L7.94014 1.33592L8.00016 1.33325L8.05032 1.33511L8.13398 1.34675L8.20826 1.36641L8.28231 1.3957L8.3473 1.43058L8.41713 1.47971L8.47157 1.52851L10.4716 3.52851C10.7319 3.78886 10.7319 4.21097 10.4716 4.47132C10.2112 4.73167 9.78911 4.73167 9.52876 4.47132L8.66683 3.60925V9.99992C8.66683 10.3681 8.36835 10.6666 8.00016 10.6666C7.63197 10.6666 7.3335 10.3681 7.3335 9.99992V3.60925L6.47157 4.47132C6.21122 4.73167 5.78911 4.73167 5.52876 4.47132C5.26841 4.21097 5.26841 3.78886 5.52876 3.52851L7.52876 1.52851C7.55235 1.50492 7.57728 1.48346 7.60329 1.46414L7.67745 1.41637L7.75261 1.38074L7.82283 1.35715L7.90119 1.3406Z" fill="#2E1AAD"/>
</g>
</svg>

<svg width="16" height="16" fill="none" xmlns="http://www.w3.org/2000/svg"><path fill-rule="evenodd" clip-rule="evenodd" d="M14 10.667c.342 0 .624.257.662.588l.005.078v1.334a2 2 0 01-1.883 1.996l-.117.004H3.333a2 2 0 01-1.996-1.883l-.004-.117v-1.334a.667.667 0 011.33-.078l.004.078v1.334c0 .341.257.623.589.662l.078.004h9.333a.667.667 0 00.662-.589l.005-.077v-1.334c0-.368.298-.666.666-.666zM7.901 1.34l.04-.005.06-.003.05.002.083.012.074.02.074.029.065.035.07.049.055.049 2 2a.667.667 0 01-.943.942l-.862-.862V10a.667.667 0 01-1.333 0V3.61l-.862.862a.667.667 0 11-.943-.942l2-2a.672.672 0 01.074-.065l.074-.048.076-.035.07-.024.078-.016z" fill="#2E1AAD"/></svg>
